X:5
T: Nicholas McAuliffe's
S: "Johnny O'Leary of Sliabh Luachra" (#244)
Z: B.Black
L: 1/8
M: 12/8
Q: 400
R: jig
K: G
G GFE|: D2 G GFG ABc A2G|FGA DEF G2A Bcd|
DGF GFG ABc A2G|1 F/G/FA DEF G3 G2E :|
|2 F/G/FA DEF G3 G2A||B/c/BB BGB c2B c2B|
AGA ABA G/A/GA Bcd|DGF GFG ABc A2G|
|1 F/G/FA DEF G3 G2A :|2 F/G/FA DEF G3 F2E||
